X: 74
M:C|
L:1/8
Q:200
K:C
g4 e4|d2 BA G2AB|c2c2 d2d2|e6 ee|e2 fg a2 cc|c2 de f2 AA|BG e2 d3c|c8||
3
c|c8||

